Papirus/64x64/apps/deepin-feedback.svg

<svg xmlns="http://www.w3.org/2000/svg" width="64" height="64" version="1.1">
 <path style="opacity:0.2;fill-rule:evenodd" d="m 32,57.049519 c 16.0167,0 29,-10.737133 29,-25.925208 C 61,15.937613 48.0167,5.0013748 32,4.9999996 c -16.0167,0 -29.0000004,10.9376134 -29.0000004,26.1243114 0,8.316667 3.8929457,15.158386 10.0451884,19.828169 0.368238,0.279507 -0.467506,5.951571 -2.852342,7.760405 -0.5872498,0.444862 -0.2087998,1.359141 0.5249,1.282591 2.805268,-0.292811 6.924522,-1.541067 9.780558,-4.97083 C 24.02458,56.33754 27.913562,57.049519 32,57.049519 Z"/>
 <path style="fill:#57c93f;fill-rule:evenodd" d="m 32,56.04952 c 16.0167,0 29,-10.737133 29,-25.925208 C 61,14.937614 48.0167,4.0013754 32,4.0000002 c -16.0167,0 -29.0000004,10.9376138 -29.0000004,26.1243118 0,8.316667 3.8929457,15.158386 10.0451884,19.828169 0.368238,0.279507 -0.467506,5.951571 -2.852342,7.760405 -0.5872498,0.444862 -0.2087998,1.359141 0.5249,1.282591 2.805268,-0.292811 6.924522,-1.541067 9.780558,-4.97083 C 24.02458,55.337541 27.913562,56.04952 32,56.04952 Z"/>
 <rect style="opacity:0.2" width="30" height="3" x="17" y="21" rx="1.364"/>
 <rect style="fill:#ffffff" width="30" height="3" x="17" y="20" rx="1.364"/>
 <rect style="opacity:0.2" width="30" height="3" x="17" y="29" rx="1.364"/>
 <rect style="fill:#ffffff" width="30" height="3" x="17" y="28" rx="1.364"/>
 <rect style="opacity:0.2" width="30" height="3" x="17" y="37" rx="1.364"/>
 <rect style="fill:#ffffff" width="30" height="3" x="17" y="36" rx="1.364"/>
 <path style="fill:#ffffff;fill-rule:evenodd;opacity:0.2" d="M 32 4 C 15.9833 4 3 14.938302 3 30.125 C 3 30.285086 3.0107987 30.440621 3.0136719 30.599609 C 3.3107413 15.688036 16.169523 5 32 5 C 47.83947 5.00136 60.703384 15.700182 60.986328 30.625 C 60.989503 30.457808 61 30.293293 61 30.125 C 61 14.938302 48.0167 4.0013752 32 4 z M 13.087891 51.042969 C 12.893609 52.844602 11.978017 56.359276 10.193359 57.712891 C 9.8043956 58.007544 9.8440309 58.502943 10.125 58.785156 C 10.149069 58.76146 10.16479 58.734533 10.193359 58.712891 C 12.46019 56.993561 13.32385 51.794363 13.087891 51.042969 z"/>
</svg>

<svg width="64" height="64" version="1.1" xmlns="http://www.w3.org/2000/svg">
 <path d="m32 57.049519c16.0167 0 29-10.737133 29-25.925208 0-15.186698-12.9833-26.122936-29-26.124311-16.0167 0-29 10.937613-29 26.124311 0 8.316667 3.8929457 15.158386 10.045188 19.828169 0.368238 0.279507-0.467506 5.951571-2.852342 7.760405-0.5872498 0.444862-0.2087998 1.359141 0.5249 1.282591 2.805268-0.292811 6.924522-1.541067 9.780558-4.97083 3.526276 1.312894 7.415258 2.024873 11.501696 2.024873z" style="fill-rule:evenodd;opacity:.2"/>
 <path d="m32 56.04952c16.0167 0 29-10.737133 29-25.925208 0-15.186698-12.9833-26.122937-29-26.124312-16.0167 0-29 10.937614-29 26.124312 0 8.316667 3.8929457 15.158386 10.045188 19.828169 0.368238 0.279507-0.467506 5.951571-2.852342 7.760405-0.5872498 0.444862-0.2087998 1.359141 0.5249 1.282591 2.805268-0.292811 6.924522-1.541067 9.780558-4.97083 3.526276 1.312894 7.415258 2.024873 11.501696 2.024873z" style="fill-rule:evenodd;fill:#57c93f"/>
 <rect x="17" y="21" width="30" height="4" rx="2" ry="2" style="fill:#010101;opacity:.2"/>
 <rect x="17" y="29" width="30" height="4" rx="2" ry="2" style="fill:#010101;opacity:.2"/>
 <rect x="17" y="37" width="30" height="4" rx="2" ry="2" style="fill:#010101;opacity:.2"/>
 <rect x="17" y="20" width="30" height="4" rx="2" ry="2" style="fill:#e4e4e4"/>
 <rect x="17" y="28" width="30" height="4" rx="2" ry="2" style="fill:#e4e4e4"/>
 <rect x="17" y="36" width="30" height="4" rx="2" ry="2" style="fill:#e4e4e4"/>
 <path d="M 32,4 C 15.9833,4 3,14.938302 3,30.125 3,30.285086 3.010799,30.440621 3.013672,30.599609 3.3107413,15.688036 16.169523,5 32,5 47.83947,5.00136 60.703384,15.700182 60.986328,30.625 60.989503,30.457808 61,30.293293 61,30.125 61,14.938302 48.0167,4.0013752 32,4 Z M 13.087891,51.042969 c -0.194282,1.801633 -1.109874,5.316307 -2.894532,6.669922 -0.3889634,0.294653 -0.3493281,0.790052 -0.06836,1.072265 0.02407,-0.0237 0.03979,-0.05062 0.06836,-0.07227 2.266831,-1.71933 3.130491,-6.918528 2.894532,-7.669922 z" style="fill-rule:evenodd;fill:#ffffff;opacity:.2"/>
</svg>
